1 - Nebula Neutral - HLG 3.cube
TITLE "Generated by Resolve"
LUT_3D_SIZE 65
0.0296483 0.0296483 0.0296483
0.0310521 0.0298009 0.0298009
0.0356909 0.0302434 0.0302739
0.0447852 0.0310063 0.0310216
0.060502 0.0319524 0.0316777
0.0801556 0.0320592 0.0316625
0.103014 0.0318914 0.0315251
0.125231 0.0308385 0.0308843
0.148913 0.0294499 0.0299535
0.172564 0.0274662 0.0285344
0.195438 0.0247654 0.0269322
0.218921 0.0217288 0.0251316
0.241215 0.0185092 0.0230411
0.262089 0.0148928 0.0211948
0.280949 0.0112917 0.0191196
0.298375 0.00764477 0.0168612
0.313405 0.00393683 0.0150149
0.326116 0.000488289 0.0130159
0.336919 0 0.0111543
0.346716 0 0.00961318
0.352758 0 0.00784314
0.357656 0 0.00630198
0.360006 0 0.00491341
0.361929 0 0.00360113
0.365911 0 0.00265507
0.370382 0 0.00190738
0.374411 0 0.00122072
0.378195 0 0.000595102
0.382483 0 0
0.385702 0 0
0.38909 0 0
0.392508 0 0
0.395438 0 0
0.39791 0 0
0.400656 0 0
0.403388 0 0
0.406729 0 0
0.40824 0 0
0.408057 0 0
0.409201 0 0
0.40914 0 0
0.407385 0 0
0.405234 0 0
0.402609 0 0
0.400336 0 0
0.398764 0 0
0.398901 0 0
0.398718 0 0
0.400381 0 0
0.40499 0 0
0.412848 0 0
0.424979 0 0
0.436851 0 0
0.449439 0 0
0.462928 0 0
0.476143 0 0
0.489754 0 0
0.503288 0 0
0.517098 0 0
0.530526 0 0
0.542473 0 0
0.554849 0 0
0.56846 0 0
0.581445 0 0
0.594797 0 0
0.0298161 0.0310369 0.0305791
0.0312047 0.0310369 0.0303044
0.0359808 0.0317082 0.0309453
0.0453498 0.0327459 0.0319219
0.0611887 0.0336614 0.0327916
0.082475 0.034287 0.0332799
0.104829 0.0338598 0.0326543
0.128466 0.0329442 0.032105
0.152514 0.0313115 0.0310674
0.176364 0.0290684 0.0295567
0.200855 0.0263828 0.0278325
0.225025 0.0231937 0.0260014
0.247654 0.0196231 0.0239414
0.268238 0.0158694 0.0217441
0.287633 0.0120241 0.0196231
0.305531 0.00820935 0.0173342
0.320867 0.00444038 0.0152895
0.334234 0.00077821 0.0134279
0.344549 0 0.0113985
0.353124 0 0.00973526
0.360098 0 0.0080415
0.365316 0 0.00648508
0.368643 0 0.00514229
0.369467 0 0.00367742
0.371267 0 0.00250248
0.375143 0 0.00164797
0.378515 0 0.00106813
0.381811 0 0.000442512
0.38529 0 0
0.389181 0 0
0.391852 0 0
0.395163 0 0
0.397879 0 0
0.400275 0 0
0.402853 0 0
0.405844 0 0
0.409094 0 0
0.410452 0 0
0.410651 0 0
0.410986 0 0
0.411582 0 0
0.409598 0 0
0.407324 0 0
0.404517 0 0
0.40209 0 0
0.399817 0 0
0.400214 0 0
0.399817 0 0
0.401205 0 0
0.405478 0 0
0.413077 0 0
0.425025 0 0
0.436866 0 0
0.4495 0 0
0.462989 0 0
0.476204 0 0
0.489815 0 0
0.503319 0 0
0.517128 0 0
0.530556 0 0
0.542504 0 0
0.554879 0 0
0.56849 0 0
0.581476 0 0
0.594827 0 0
0.0302586 0.035584 0.0335241
0.0310521 0.0357519 0.0329747
0.0364843 0.0356298 0.0323033
0.0457923 0.0365759 0.0330816
0.0624094 0.0377203 0.0340581
0.0848096 0.0382696 0.0344701
0.109865 0.0383917 0.0345922
0.1355 0.0378119 0.0342565
0.162814 0.0365454 0.0335699
0.190341 0.0344854 0.0325475
0.217487 0.0316014 0.0307927
0.243626 0.0277409 0.0285496
0.268086 0.023621 0.0263218
0.290959 0.0192264 0.0238346
0.311757 0.0146639 0.0213626
0.330312 0.0101015 0.0189059
0.346166 0.00573739 0.0166323
0.360159 0.00163272 0.0143587
0.370459 0 0.0123751
0.378836 0 0.0103914
0.385443 0 0.0084535
0.389807 0 0.00694286
0.392706 0 0.00526436
0.393133 0 0.00393683
0.394125 0 0.00260929
0.39324 0 0.00128176
0.39295 0 0.000427253
0.395178 0 0
0.397314 0 0
0.399283 0 0
0.400366 0 0
0.403586 0 0
0.406455 0 0
0.40853 0 0
0.410651 0 0
0.412772 0 0
0.414923 0 0
0.417517 0 0
0.418173 0 0
0.417639 0 0
0.417685 0 0
0.416449 0 0
0.413733 0 0
0.410452 0 0
0.407401 0 0
0.404486 0 0
0.403418 0 0
0.40322 0 0
0.403784 0 0
0.407202 0 0
0.413916 0 0
0.425132 0 0
0.436942 0 0
0.449607 0 0
0.463066 0 0
0.476295 0 0
0.489921 0 0
0.503426 0 0
0.51722 0 0
0.530678 0 0
0.542565 0 0
0.555016 0 0
0.568597 0 0
0.581582 0 0
0.594934 0 0
0.0301518 0.0440223 0.0385901
0.0314794 0.0442206 0.038819
0.0326085 0.0448463 0.0343328
0.0464179 0.0440375 0.035111
0.0645151 0.0454261 0.0359808
0.0899519 0.0462959 0.0364691
0.117403 0.0462501 0.036347
0.145937 0.0454566 0.0358129
0.176165 0.043946 0.0349737
0.206058 0.0415045 0.0336156
0.237095 0.0381628 0.0319677
0.267536 0.0345006 0.0301976
0.29691 0.0299687 0.0284581
0.325582 0.0252079 0.0265202
0.352224 0.0202182 0.0246128
0.373297 0.0144808 0.0215915
0.391516 0.00892653 0.0191043
0.405997 0.0037232 0.0162814
0.417304 0 0.0139925
0.426627 0 0.0115358
0.433036 0 0.00936904
0.436561 0 0.00749218
0.438239 0 0.00563058
0.437568 0 0.00415045
0.437903 0 0.00256352
0.43563 0 0.00129702
0.430793 0 0.000106813
0.425635 0 0
0.421973 0 0
0.422187 0 0
0.422339 0 0
0.422019 0 0
0.421622 0 0
0.421561 0 0
0.423301 0 0
0.426642 0 0
0.42739 0 0
0.428061 0 0
0.430365 0 0
0.430121 0 0
0.428626 0 0
0.426841 0 0
0.425025 0 0
0.421057 0 0
0.416892 0 0
0.413123 0 0
0.409827 0 0
0.408576 0 0
0.408591 0 0
0.410529 0 0
0.415747 0 0
0.425299 0 0
0.437049 0 0
0.449775 0 0
0.463294 0 0
0.476524 0 0
0.490105 0 0
0.503639 0 0
0.517388 0 0
0.530861 0 0
0.542718 0 0
0.555215 0 0
0.568795 0 0
0.58175 0 0
0.595102 0 0
0.0267185 0.0591897 0.0462348
0.0282902 0.0594186 0.0464179
0.030808 0.0602884 0.0434272
0.0385748 0.0622568 0.0368658
0.065568 0.0593271 0.0375219
0.094377 0.0601968 0.0373541
0.126528 0.0605325 0.0369421
0.158602 0.0594644 0.0359503
0.191989 0.0574655 0.0349126
0.226413 0.0544289 0.0335851
0.261204 0.0504158 0.0319371
0.29543 0.0455177 0.0300298
0.329076 0.0399939 0.0281529
0.361395 0.033814 0.0261997
0.390158 0.0275578 0.0239872
0.417456 0.0211185 0.0219425
0.441428 0.0146944 0.0202029
0.462531 0.00854505 0.0181582
0.48159 0.00250248 0.0164492
0.494987 0 0.0143435
0.503166 0 0.0117189
0.509026 0 0.00895705
0.511009 0 0.00677501
0.512444 0 0.00460822
0.509667 0 0.00277714
0.504295 0 0.00102235
0.498955 0 0
0.491859 0 0
0.482841 0 0
0.475105 0 0
0.464744 0 0
0.455268 0 0
0.453346 0 0
0.451408 0 0
0.448753 0 0
0.446677 0 0
0.445289 0 0
0.444984 0 0
0.446357 0 0
0.446006 0 0
0.446311 0 0
0.44332 0 0
0.440391 0 0
0.435859 0 0
0.431525 0 0
0.426154 0 0
0.421332 0 0
0.417136 0 0
0.415229 0 0
0.41622 0 0
0.419181 0 0
0.426215 0 0
0.437232 0 0
0.450004 0 0
0.463508 0 0
0.476753 0 0
0.490364 0 0
0.503868 0 0
0.517662 0 0
0.531106 0 0
0.542855 0 0
0.555428 0 0
0.569024 0 0
0.581979 0 0
0.595331 0 0
0.0163729 0.0823835 0.0539864
0.0180514 0.082887 0.0542611
0.0229038 0.0842451 0.0539559
0.024506 0.0872358 0.0413062
0.0525826 0.0902419 0.0355077
0.095079 0.0823835 0.0361639
0.130678 0.0829938 0.0348974
0.167117 0.0825055 0.0336309
0.204211 0.0804913 0.0321508
0.24213 0.0773327 0.0305028
0.281132 0.0731365 0.028687
0.319677 0.0674754 0.0267796
0.357641 0.0609903 0.024979
0.393927 0.0533608 0.0230564
0.428687 0.0454719 0.021088
0.461265 0.03682 0.0192416
0.489464 0.0281376 0.0175937
0.514885 0.019379 0.0158236
0.537072 0.0108797 0.0144045
0.557336 0.00280766 0.0128481
0.572931 0 0.0113069
0.58645 0 0.0099031
0.597635 0 0.00854505
0.605432 0 0.00701915
0.605676 0 0.004654
0.603403 0 0.00202945
0.59852 0 0
0.590539 0 0
0.580056 0 0
0.5682 0 0
0.553948 0 0
0.541482 0 0
0.526833 0 0
0.511803 0 0
0.493751 0 0
0.485466 0 0
0.481071 0 0
0.47567 0 0
0.471092 0 0
0.468071 0 0
0.465812 0 0
0.466773 0 0
0.462516 0 0
0.456809 0 0
0.450462 0 0
0.445075 0 0
0.438087 0 0
0.431479 0 0
0.426429 0 0
0.423529 0 0
0.424674 0 0
0.429099 0 0
0.437446 0 0
0.450324 0 0
0.463813 0 0
0.477073 0 0
0.490669 0 0
0.504204 0 0
0.517998 0 0
0.531411 0 0
0.543099 0 0
0.555749 0 0
0.56936 0 0
0.582315 0 0
0.595636 0 0
0 0.11104 0.0619821
0.000869764 0.111818 0.0623484
0.0065156 0.113405 0.062974
0.0105287 0.116869 0.0513924
0.0208743 0.120836 0.0311437
0.0791028 0.12224 0.0297093
0.128359 0.109102 0.0312963
0.168048 0.109224 0.0296178
0.20795 0.108354 0.0277256
0.248447 0.105821 0.0256809
0.290135 0.102251 0.0236362
0.331411 0.0972763 0.0214237
0.372137 0.0914321 0.0192416
0.412085 0.0838483 0.016968
0.45008 0.0751507 0.0148165
0.486336 0.0659037 0.0127871
0.520104 0.056199 0.0112001
0.549905 0.0462806 0.00932326
0.578042 0.0357977 0.00796521
0.603876 0.0250401 0.0069276
0.626459 0.0146029 0.00578317
0.647318 0.00421149 0.00480659
0.663478 0 0.00378424
0.677394 0 0.00292973
0.687831 0 0.00213626
0.696315 0 0.00115969
0.700893 0 0.000274662
0.702678 0 0
0.701915 0 0
0.6925 0 0
0.67892 0 0
0.665003 0 0
0.64892 0 0
0.627985 0 0
0.605249 0 0
0.582559 0 0
0.556756 0 0
0.530816 0 0
0.51606 0 0
0.506691 0 0
0.499611 0 0
0.493431 0 0
0.487495 0 0
0.485512 0 0
0.478233 0 0
0.469581 0 0
0.459937 0 0
0.452308 0 0
0.44387 0 0
0.437537 0 0
0.4336 0 0
0.433509 0 0
0.438819 0 0
0.450706 0 0
0.464256 0 0
0.477455 0 0
0.491066 0 0
0.504631 0 0
0.518395 0 0
0.531853 0 0
0.54342 0 0
0.55613 0 0
0.569711 0 0
0.582681 0 0
0.595987 0 0
0 0.141497 0.0692454
0 0.142275 0.0695659
0 0.144442 0.0703441
0 0.147829 0.0639658
0 0.153048 0.033875
0.0367742 0.155337 0.0233616
0.114961 0.154711 0.0211643
0.162844 0.137118 0.0243992
0.205509 0.136706 0.0222477
0.248463 0.134722 0.0198825
0.292332 0.13225 0.0176242
0.335607 0.128359 0.0151064
0.378012 0.1234 0.0126497
0.419501 0.117388 0.0100252
0.460258 0.110521 0.00772107
0.499168 0.102556 0.00549325
0.533501 0.0937209 0.00331121
0.566537 0.0840467 0.00138857
0.597421 0.0731212 0
0.625711 0.062089 0
0.651926 0.0507668 0
0.675776 0.0393072 0
0.698405 0.0274357 0
0.719448 0.0154421 0
0.737758 0.00323491 0
0.754726 0 0
0.768872 0 0
0.779843 0 0
0.786908 0 0
0.791241 0 0
0.79237 0 0
0.789944 0 0
0.785702 0 0
0.77406 0 0
0.753307 0 0
0.728573 0 0
0.700221 0 0
0.666163 0 0
0.628733 0 0
0.592264 0 0
0.558312 0 0
0.540749 0 0
0.528252 0 0
0.518288 0 0
0.509483 0 0
0.502266 0 0
0.492729 0 0
0.479576 0 0
0.467964 0 0
0.458351 0 0
0.449928 0 0
0.444755 0 0
0.444785 0 0
0.451484 0 0
0.464698 0 0
0.477913 0 0
0.491554 0 0
0.505104 0 0
0.518868 0 0
0.532311 0 0
0.543755 0 0
0.556619 0 0
0.570214 0 0
0.583108 0 0
0.59646 0 0
0 0.172625 0.0759289
0 0.173541 0.0762341
0 0.176181 0.0770428
0 0.179294 0.0778821
0 0.185412 0.0445106
0 0.189593 0.0156863
0.0648814 0.189487 0.0133059
0.153124 0.187488 0.0106813
0.198215 0.165316 0.016022
0.244404 0.164233 0.0135958
0.289815 0.162234 0.011017
0.334615 0.158862 0.00822461
0.379843 0.155184 0.0055848
0.422904 0.150454 0.00271611
0.46566 0.144961 0.000122072
0.505653 0.13875 0
0.541436 0.131609 0
0.574487 0.124193 0
0.606806 0.115846 0
0.63653 0.106767 0
0.663462 0.0971237 0
0.689219 0.0861219 0
0.713344 0.0741436 0
0.736233 0.0615549 0
0.756893 0.0493019 0
0.776974 0.0360723 0
0.794446 0.0231174 0
0.811658 0.00982681 0
0.826581 0 0
0.841138 0 0
0.852476 0 0
0.862638 0 0
0.869505 0 0
0.871 0 0
0.871 0 0
0.865156 0 0
0.854063 0 0
0.834012 0 0
0.798611 0 0
0.758297 0 0
0.710323 0 0
0.658366 0 0
0.606302 0 0
0.576089 0 0
0.554391 0 0
0.542565 0 0
0.530953 0 0
0.517235 0 0
0.502708 0 0
0.486625 0 0
0.47451 0 0
0.463508 0 0
0.456977 0 0
0.457038 0 0
0.465248 0 0
0.478477 0 0
0.492103 0 0
0.505669 0 0
0.519417 0 0
0.532906 0 0
0.544137 0 0
0.557168 0 0
0.570733 0 0
0.583658 0 0
0.596918 0 0
0 0.2047 0.0820478
0 0.205798 0.0823529
0 0.208499 0.0829786
0 0.212741 0.0835584
0 0.218891 0.0587167
0 0.223972 0.0115969
0.00581369 0.224704 0.00358587
0.100801 0.223316 0.000976577
0.192416 0.220752 0
0.235172 0.194064 0.00608835
0.283375 0.192935 0.00326543
0.331228 0.191211 0.000427253
0.377295 0.187808 0
0.422705 0.18436 0
0.466377 0.179858 0
0.506859 0.175067 0
0.543175 0.169207 0
0.57821 0.163439 0
0.611353 0.157 0
0.641367 0.149798 0
0.669017 0.142473 0
0.695674 0.134325 0
0.72047 0.125597 0
0.743313 0.116182 0
0.765072 0.105715 0
0.785336 0.0943465 0
0.804425 0.0816815 0
0.823133 0.0679484 0
0.8392 0.0543221 0
0.855009 0.0398718 0
0.869871 0.0257267 0
0.883696 0.0110323 0
0.89514 0 0
0.907164 0 0
0.917388 0 0
0.927962 0 0
0.935119 0 0
0.936538 0 0
0.931472 0 0
0.917128 0 0
0.893431 0 0
0.848066 0 0
0.790249 0 0
0.723293 0 0
0.65774 0 0
0.608301 0 0
0.579507 0 0
0.562814 0 0
0.547082 0 0
0.529412 0 0
0.508598 0 0
0.490257 0 0
0.47834 0 0
0.470115 0 0
0.469856 0 0
0.479103 0 0
0.492744 0 0
0.506279 0 0
0.520073 0 0
0.533455 0 0
0.544594 0 0
0.557778 0 0
0.571359 0 0
0.584268 0 0
0.597528 0 0
0 0.236454 0.0863661
0 0.237705 0.0866407
0 0.241337 0.0873579
0 0.245838 0.0875563
0 0.251667 0.0775616
0 0.258335 0.0206607
0 0.261387 0
0.0309453 0.260884 0
0.138872 0.258457 0
0.234028 0.254826 0
0.273594 0.224399 0
0.322927 0.223102 0
0.370474 0.220569 0
0.417182 0.218128 0
0.461341 0.21471 0
0.503136 0.211109 0
0.541878 0.206592 0
0.576562 0.20177 0
0.610422 0.19678 0
0.640833 0.191394 0
0.6692 0.18558 0
0.69633 0.179477 0
0.72224 0.172595 0
0.745418 0.165637 0
0.768246 0.157656 0
0.789685 0.149096 0
0.808896 0.140322 0
0.82771 0.130358 0
0.845289 0.119539 0
0.861112 0.108507 0
0.87718 0.0957504 0
0.891386 0.08159 0
0.904723 0.0659037 0
0.917174 0.0507057 0
0.93022 0.0338598 0
0.942489 0.0151217 0
0.954818 0 0
0.965042 0 0
0.975311 0 0
0.983459 0 0
0.988632 0 0
0.982651 0 0
0.961944 0 0
0.926268 0 0
0.860426 0 0
0.781643 0 0
0.696345 0 0
0.634104 0 0
0.599924 0 0
0.578943 0 0
0.555856 0 0
0.53315 0 0
0.510079 0 0
0.494392 0 0
0.483787 0 0
0.482734 0 0
0.493477 0 0
0.507012 0 0
0.520836 0 0
0.533959 0 0
0.545098 0 0
0.558511 0 0
0.572076 0 0
0.58497 0 0
0.598184 0 0
0 0.268833 0.0903944
0 0.270069 0.0905013
0 0.273365 0.0907301
0 0.279728 0.0912642
0 0.285664 0.0903487
0 0.293629 0.0352331
0 0.298131 0
0 0.298146 0
0.0666514 0.297093 0
0.18114 0.293843 0
0.26949 0.281559 0
0.310948 0.255116 0
0.361059 0.254307 0
0.409049 0.252384 0
0.454246 0.249393 0
0.496559 0.246799 0
0.536355 0.24361 0
0.572198 0.240085 0
0.60589 0.235828 0
0.637675 0.231403 0
0.66627 0.226886 0
0.693599 0.222141 0
0.719905 0.2168 0
0.744045 0.211231 0
0.767224 0.205081 0
0.788876 0.198535 0
0.808286 0.191669 0
0.827359 0.184024 0
0.845396 0.175937 0
0.862028 0.167636 0
0.878126 0.158679 0
0.893172 0.149035 0
0.908049 0.138567 0
0.921584 0.126879 0
0.934752 0.11313 0
0.947829 0.096849 0
0.960891 0.07776 0
0.973739 0.0559243 0
0.98555 0.0327459 0
0.996765 0.00761425 0
1 0 0
1 0 0
1 0 0
1 0 0
1 0 0
0.983276 0 0
0.917723 0 0
0.823865 0 0
0.720836 0 0
0.650996 0 0
0.613779 0 0
0.589822 0 0
0.557992 0 0
0.531594 0 0
0.509041 0 0
0.497444 0 0
0.496117 0 0
0.50782 0 0
0.52163 0 0
0.534554 0 0
0.545892 0 0
0.559319 0 0
0.572839 0 0
0.585733 0 0
0.598917 0 0
0 0.300252 0.0936751
0 0.301472 0.0936904
0 0.305913 0.0942397
0 0.312718 0.0945449
0 0.320058 0.0939345
0 0.328313 0.0577859
0 0.334249 0
0 0.335546 0
0 0.334646 0
0.115969 0.332616 0
0.225162 0.328786 0
0.305821 0.308309 0
0.349065 0.286793 0
0.398489 0.285634 0
0.445762 0.284321 0
0.488411 0.281636 0
0.529152 0.279377 0
0.565103 0.276677 0
0.600076 0.273823 0
0.632914 0.270542 0
0.661433 0.266926 0
0.689326 0.262791 0
0.715404 0.258396 0
0.739361 0.254231 0
0.762509 0.249546 0
0.784237 0.24416 0
0.804898 0.238453 0
0.823835 0.232792 0
0.842222 0.22652 0
0.859525 0.219898 0
0.875761 0.212879 0
0.890898 0.205463 0
0.90573 0.197284 0
0.920119 0.189166 0
0.933715 0.17937 0
0.94844 0.168078 0
0.961379 0.155428 0
0.974746 0.140108 0
0.988342 0.122591 0
1 0.101564 0
1 0.0750439 0
1 0.0447242 0
1 0.0123903 0
1 0 0
1 0 0
1 0 0
1 0 0
1 0 0
0.955917 0 0
0.84506 0 0
0.722866 0 0
0.65684 0 0
0.620432 0 0
0.588449 0 0
0.554574 0 0
0.52604 0 0
0.511543 0 0
0.509728 0 0
0.522499 0 0
0.53521 0 0
0.546807 0 0
0.560159 0 0
0.573709 0 0
0.586572 0 0
0.599741 0 0
0 0.331518 0.0973068
0 0.332372 0.0970626
0 0.337392 0.0975662
0 0.344625 0.098146
0 0.354208 0.0974899
0 0.361196 0.0900893
0 0.369268 0.00360113
0 0.373236 0
0 0.372763 0
0.0270848 0.370733 0
0.165286 0.368215 0
0.271183 0.36376 0
0.341695 0.335622 0
0.387015 0.319478 0
0.434089 0.317891 0
0.478553 0.316915 0
0.519905 0.314977 0
0.557473 0.313359 0
0.591684 0.310246 0
0.625025 0.307805 0
0.65449 0.305455 0
0.682582 0.302083 0
0.709407 0.298863 0
0.733501 0.295689 0
0.757168 0.29189 0
0.77937 0.287648 0
0.799924 0.282872 0
0.819028 0.277684 0
0.836789 0.272999 0
0.854032 0.267781 0
0.870985 0.262013 0
0.886763 0.256107 0
0.901686 0.250004 0
0.915908 0.24361 0
0.930205 0.235843 0
0.944335 0.2271 0
0.957961 0.21735 0
0.972259 0.206409 0
0.985519 0.193622 0
0.999329 0.17908 0
1 0.161547 0
1 0.141131 0
1 0.116213 0
1 0.0843519 0
1 0.0452735 0
1 0.0030518 0
1 0 0
1 0 0
1 0 0
1 0 0
0.970977 0 0
0.837858 0 0
0.711711 0 0
0.656474 0 0
0.619455 0 0
