1 - Nebula Neutral - HLG 3.cube
TITLE "Generated by Resolve"
LUT_3D_SIZE 9
0.0296483 0.0296483 0.0296483
0.148913 0.0294499 0.0299535
0.313405 0.00393683 0.0150149
0.365911 0 0.00265507
0.395438 0 0
0.40914 0 0
0.400381 0 0
0.489754 0 0
0.594797 0 0
0 0.172625 0.0759289
0.198215 0.165316 0.016022
0.541436 0.131609 0
0.756893 0.0493019 0
0.869505 0 0
0.710323 0 0
0.502708 0 0
0.492103 0 0
0.596918 0 0
0 0.418921 0.107393
0 0.480873 0
0.485969 0.414832 0
0.734691 0.404974 0
0.881727 0.383307 0
0.994537 0.337438 0
1 0.201419 0
0.810239 0 0
0.603922 0 0
0 0.585519 0.148989
0 0.684276 0.0947585
0.267842 0.670832 0
0.662287 0.614267 0
0.817533 0.610742 0
0.932448 0.599954 0
1 0.571481 0
1 0.479805 0
1 0 0
0 0.670756 0.203464
0 0.786068 0.215152
0 0.795178 0
0.568124 0.777173 0
0.759487 0.745846 0
0.878721 0.743969 0
0.974273 0.736019 0
1 0.709651 0
1 0.610895 0
0 0.700984 0.254002
0 0.813306 0.309346
0 0.884962 0.130343
0.460243 0.867674 0.069688
0.693065 0.858137 0.0713817
0.827192 0.846357 0.0754864
0.924102 0.844816 0.0661784
0.992279 0.838941 0.0239414
1 0.816754 0
0 0.64036 0.251759
0 0.761013 0.328481
0 0.957137 0.462196
0.400061 0.930617 0.3729
0.651194 0.920485 0.383505
0.781796 0.914046 0.396735
0.878401 0.913848 0.4224
0.940551 0.911864 0.442054
0.981781 0.908598 0.43444
0 0.493736 0.201617
0 0.533471 0.221057
0 0.848295 0.448096
0 0.981399 0.550698
0.680812 0.947204 0.63212
0.79266 0.939605 0.650843
0.860059 0.934401 0.671138
0.910948 0.935195 0.720516
0.940978 0.934112 0.747234
0 0.560769 0.261189
0 0.560739 0.261173
0 0.560678 0.261067
0 0.786908 0.426352
0 0.982818 0.729213
0.840055 0.945891 0.823896
0.887861 0.94255 0.838285
0.912291 0.941543 0.847501
0.933928 0.945037 0.868437
0.0207523 0.0581826 0.159777
0.20174 0.0163272 0.162142
0.428305 0 0.143664
0.494881 0 0.109453
0.463355 0 0.0779431
0.459968 0 0.0640574
0.444511 0 0.0508125
0.528969 0 0.032639
0.630045 0 0
0 0.190188 0.182177
0.190448 0.190448 0.190448
0.553307 0.139742 0.173342
0.772564 0.0438239 0.165957
0.900481 0 0.1608
0.861189 0 0.115129
0.564034 0 0.057084
0.532219 0 0.0379797
0.63331 0 0
0 0.428916 0.241474
0 0.473671 0.239857
0.474754 0.440696 0.145357
0.7252 0.426429 0.132509
0.873564 0.400626 0.126802
0.987961 0.351553 0.129946
1 0.211414 0.151476
0.943587 0 0.0537575
0.644694 0 0.0135348
0 0.590188 0.277104
0 0.677165 0.282246
0.262638 0.663142 0.106798
0.648478 0.626841 0.104265
0.806683 0.620218 0.0877089
0.92253 0.606485 0.0750286
1 0.574655 0.0618143
1 0.480766 0.06392
1 0 0.123903
0 0.673548 0.306966
0 0.78294 0.353643
0 0.785077 0.15259
0.558175 0.768627 0.143664
0.749233 0.748348 0.141756
0.869917 0.744289 0.131502
0.966567 0.733776 0.119203
1 0.705562 0.085832
1 0.606546 0.0170901
0 0.704417 0.325521
0 0.812818 0.396902
0 0.875624 0.294072
0.471382 0.858427 0.265064
0.688563 0.849592 0.267124
0.821088 0.842573 0.269902
0.918456 0.838956 0.272511
0.986908 0.830915 0.262577
1 0.807523 0.207584
0 0.645991 0.288487
0 0.76527 0.374075
0 0.950881 0.513268
0.422797 0.923644 0.441154
0.65774 0.914092 0.452155
0.781231 0.907729 0.463081
0.875944 0.90866 0.487709
0.937728 0.905425 0.507424
0.978607 0.901106 0.508965
0 0.492744 0.214038
0 0.537484 0.23711
0 0.852171 0.477195
0 0.977432 0.579797
0.688685 0.94374 0.65597
0.795529 0.936599 0.672374
0.860471 0.931655 0.690959
0.910216 0.932815 0.735759
0.940261 0.931899 0.76141
0 0.559747 0.267475
0 0.559731 0.267445
0 0.55967 0.267353
0 0.792462 0.443366
0.0159152 0.980713 0.739284
0.832074 0.946212 0.821225
0.88864 0.941894 0.842771
0.912581 0.941009 0.851347
0.933898 0.944579 0.871214
0 0.0897536 0.458289
0.186923 0 0.459586
0.55993 0 0.464637
0.761913 0 0.457389
0.83595 0 0.41532
0.661082 0 0.253285
0.552102 0 0.183017
0.597269 0 0.16614
0.718959 0 0.156497
0 0.246494 0.458961
0.13959 0.227176 0.469688
0.548821 0.132158 0.472724
0.772351 0.0293736 0.474128
0.910842 0 0.47837
1 0 0.475685
0.75378 0 0.240772
0.59823 0 0.168612
0.720119 0 0.159258
0 0.460212 0.441764
0 0.476921 0.461128
0.452338 0.452338 0.452338
0.70695 0.426978 0.449928
0.855406 0.395422 0.454185
0.970153 0.343618 0.464378
1 0.204486 0.48484
1 0 0.47953
0.723598 0 0.167773
0 0.60853 0.470253
0 0.662974 0.501549
0.304036 0.64123 0.455543
0.629389 0.623987 0.437415
0.789868 0.611307 0.435599
0.907225 0.591546 0.437018
1 0.55288 0.441245
1 0.448615 0.454551
1 0 0.528206
0 0.687709 0.477028
0 0.779385 0.545907
0.0145266 0.762722 0.463249
0.555352 0.748577 0.445014
0.734951 0.738857 0.444541
0.857313 0.730388 0.445777
0.955123 0.714488 0.448035
1 0.679683 0.449531
1 0.569284 0.450645
0 0.720272 0.458976
0 0.816373 0.543313
0 0.857527 0.495094
0.499519 0.839948 0.481758
0.686915 0.831724 0.483299
0.811917 0.829557 0.487572
0.909178 0.822354 0.494072
0.978271 0.810773 0.497978
1 0.78088 0.489601
0 0.665339 0.373144
0 0.780346 0.475975
0 0.937453 0.607401
0.335805 0.918853 0.506661
0.672465 0.90074 0.572183
0.782361 0.894713 0.579583
0.871489 0.896834 0.600412
0.932601 0.892393 0.617014
0.97322 0.885801 0.624186
0 0.492103 0.243839
0 0.550027 0.278111
0 0.863233 0.548653
0 0.967712 0.642924
0.650172 0.942687 0.670344
0.802548 0.929534 0.720867
0.862058 0.925368 0.734905
0.909072 0.927611 0.770321
0.938781 0.926894 0.791394
0 0.556771 0.285786
0 0.556756 0.285756
0 0.556695 0.285679
0 0.808804 0.490486
0.158984 0.975341 0.763272
0.811124 0.947082 0.814923
0.890791 0.940352 0.853773
0.913359 0.939681 0.861128
0.933913 0.943465 0.878386
0 0.176654 0.652979
0.193652 0.127581 0.656672
0.548791 0 0.660929
0.77673 0 0.66862
0.911162 0 0.673213
1 0 0.673701
0.802319 0 0.396323
0.636286 0 0.269871
0.762371 0 0.27805
0 0.313649 0.648341
0.0847028 0.286091 0.65211
0.521492 0.204181 0.654643
0.754025 0.133867 0.659754
0.893675 0.00953689 0.665721
1 0 0.678553
1 0 0.683238
0.691478 0 0.291432
0.762753 0 0.2795
0 0.518563 0.64184
0 0.505028 0.642084
0.438315 0.469383 0.634943
0.689723 0.439857 0.63473
0.835264 0.41178 0.636301
0.947311 0.368551 0.643641
1 0.259998 0.662501
1 0 0.707729
0.763943 0 0.283818
0 0.649226 0.627192
0 0.660502 0.639796
0.306874 0.635645 0.62298
0.619058 0.619058 0.619058
0.777218 0.604547 0.619928
0.89247 0.586084 0.624308
0.989364 0.552377 0.633768
1 0.469368 0.650355
1 0 0.715557
0 0.718227 0.617914
0 0.77319 0.663737
0.0579232 0.749508 0.621942
0.551461 0.73669 0.607614
0.726589 0.727367 0.614588
0.847791 0.715984 0.615991
0.945357 0.697078 0.619684
1 0.658915 0.627222
1 0.575998 0.657694
0 0.749462 0.587366
0 0.829175 0.664912
0 0.841886 0.63357
0.474784 0.828672 0.606012
0.693523 0.816648 0.628061
0.806165 0.815076 0.630945
0.901869 0.806561 0.635477
0.970855 0.792218 0.64155
1 0.758862 0.644175
0 0.698711 0.480354
0 0.804944 0.588586
0 0.923247 0.691691
0.357763 0.904036 0.631464
0.690272 0.887495 0.673655
0.786801 0.882277 0.678431
0.867811 0.884642 0.693278
0.928145 0.879774 0.705837
0.96846 0.872053 0.71313
0 0.499489 0.28629
0 0.578149 0.34078
0 0.879698 0.636515
0 0.956252 0.709331
0.596674 0.94081 0.692653
0.811139 0.922133 0.768429
0.864164 0.9187 0.778698
0.908186 0.922164 0.805203
0.937255 0.92137 0.82031
0 0.552865 0.309773
0 0.55285 0.309758
0 0.552087 0.309224
0 0.834867 0.560327
0.280491 0.968231 0.792218
0.778943 0.948562 0.806973
0.893507 0.938491 0.866804
0.914641 0.938155 0.873182
0.934234 0.942214 0.887922
0 0.303304 0.767926
0.174838 0.267903 0.768292
0.536904 0.195361 0.768872
0.749691 0.124727 0.774105
0.885634 0 0.779034
0.994141 0 0.790799
1 0 0.809537
0.757092 0 0.400031
0.787442 0 0.370108
0 0.394827 0.764141
0.0648661 0.366766 0.763119
0.510719 0.314168 0.761578
0.727489 0.274525 0.763973
0.8645 0.222049 0.768612
0.973358 0.11104 0.777066
1 0 0.79971
1 0 0.648035
0.787564 0 0.370962
0 0.552666 0.757519
0 0.531991 0.753582
0.435615 0.494026 0.747036
0.676127 0.475471 0.745129
0.816083 0.452842 0.746227
0.9252 0.419059 0.750408
1 0.345312 0.761715
1 0 0.796735
0.831907 0 0.395026
0 0.685496 0.753231
0 0.668086 0.744915
0.319219 0.640284 0.733715
0.61442 0.621195 0.731075
0.766155 0.612863 0.72987
0.878599 0.59649 0.733227
0.973449 0.567681 0.74078
1 0.499367 0.755886
1 0.161975 0.799222
0 0.758053 0.734371
0 0.767269 0.744045
0.138766 0.743404 0.726497
0.552926 0.730709 0.722194
0.721584 0.721584 0.721584
0.838499 0.711757 0.724529
0.932891 0.697658 0.731548
1 0.670542 0.741741
1 0.590692 0.759655
0 0.786007 0.699825
0 0.847852 0.761791
0 0.830289 0.727626
0.485451 0.817853 0.714122
0.680598 0.810803 0.710292
0.802197 0.804913 0.724834
0.896468 0.795026 0.728893
0.964675 0.780316 0.734722
1 0.746578 0.740154
0 0.745998 0.594171
0 0.835401 0.691875
0 0.910155 0.755764
0.388098 0.891585 0.72224
0.641474 0.88423 0.715267
0.793561 0.873503 0.750591
0.865156 0.874983 0.758419
0.924681 0.869703 0.767636
0.96463 0.861723 0.774868
0 0.523598 0.343694
0 0.622232 0.423468
0 0.899001 0.720668
0 0.945357 0.76466
0.613199 0.931105 0.754574
0.818341 0.916625 0.806622
0.867948 0.913695 0.815427
0.90808 0.917861 0.834104
0.935973 0.916838 0.844633
0 0.54844 0.336156
0 0.548424 0.336141
0 0.546548 0.334813
0 0.868208 0.644434
0.38407 0.96083 0.819883
0.780926 0.944945 0.828626
0.89659 0.936889 0.879637
0.915953 0.936675 0.88452
0.934707 0.941131 0.897185
0 0.428534 0.849149
0.200351 0.403189 0.847227
0.538781 0.37705 0.844099
0.723751 0.349981 0.84387
0.84622 0.31548 0.845624
0.947387 0.258793 0.850385
1 0.0668956 0.865873
1 0 0.905303
0.804761 0 0.458747
0 0.481788 0.846067
0.131716 0.458808 0.843717
0.519799 0.432853 0.839475
0.709407 0.412833 0.838285
0.832624 0.386313 0.839521
0.933059 0.344411 0.843122
1 0.244572 0.854902
1 0 0.890318
0.812833 0 0.464332
0 0.590372 0.838224
0 0.571008 0.83447
0.446906 0.538338 0.829847
0.674861 0.533425 0.826108
0.79971 0.517815 0.825772
0.90016 0.496117 0.828077
0.99266 0.451194 0.835111
1 0.324056 0.853941
1 0 0.920378
0 0.696834 0.830549
0 0.680278 0.824491
0.356634 0.654597 0.81799
0.615915 0.636118 0.815854
0.762524 0.63772 0.812894
0.863172 0.625467 0.813565
0.954116 0.604089 0.818662
1 0.555261 0.830457
1 0.377935 0.857801
0 0.781628 0.827359
0 0.766934 0.819516
0.232746 0.744564 0.809049
0.564843 0.730922 0.806027
0.720836 0.720714 0.804425
0.829953 0.720317 0.803937
0.920058 0.70927 0.808057
0.98883 0.68751 0.816663
1 0.626871 0.831342
0 0.832929 0.809155
0 0.846021 0.822385
0 0.823255 0.805631
0.508278 0.812192 0.800443
0.684169 0.805158 0.799084
0.799786 0.799786 0.799786
0.889067 0.793652 0.804685
0.952621 0.784833 0.812314
1 0.764538 0.821286
0 0.812375 0.729259
0 0.87335 0.795056
0 0.897536 0.813031
0.434409 0.881514 0.797391
0.654704 0.87451 0.794369
0.778302 0.870069 0.794827
0.864347 0.867597 0.814878
0.921233 0.862547 0.820218
0.96025 0.854475 0.825254
0 0.5906 0.448402
0 0.69778 0.549187
0 0.922789 0.806592
0.182208 0.934035 0.815549
0.637949 0.922011 0.811002
0.778424 0.91632 0.814679
0.872572 0.909636 0.84863
0.907851 0.91368 0.86041
0.93489 0.912703 0.867521
0 0.543099 0.36791
0 0.543084 0.367895
0 0.538842 0.365286
0 0.909743 0.749264
0.49012 0.952468 0.848859
0.791852 0.940383 0.855619
0.899474 0.935592 0.892561
0.91812 0.935546 0.897124
0.935454 0.940093 0.907134
0.103487 0.552224 0.907103
0.305241 0.539086 0.905776
0.536065 0.514229 0.904646
0.718547 0.534218 0.898634
0.819165 0.520272 0.898299
0.902907 0.501808 0.899306
0.983764 0.462943 0.903944
1 0.355505 0.918212
1 0 0.973449
0.0291752 0.578698 0.904448
0.276905 0.566629 0.902953
0.522286 0.543191 0.901381
0.710292 0.560906 0.895354
0.811383 0.548486 0.89485
0.895399 0.532387 0.895842
0.975601 0.499779 0.900038
1 0.414664 0.912764
1 0 0.957122
0 0.64303 0.897734
0.188083 0.632349 0.896056
0.483665 0.611917 0.893782
0.68484 0.617578 0.888899
0.79237 0.615061 0.886732
0.875959 0.603876 0.887098
0.954269 0.582635 0.889967
1 0.531991 0.899733
1 0.338598 0.925841
0 0.716213 0.89044
0 0.705867 0.887663
0.427787 0.689403 0.884337
0.629709 0.674769 0.882429
0.769299 0.688701 0.877302
0.852537 0.68101 0.87689
0.928466 0.668727 0.87863
0.995636 0.641657 0.885832
1 0.560052 0.901869
0 0.78233 0.88455
0 0.772351 0.880995
0.360739 0.756817 0.875975
0.593713 0.745098 0.873396
0.726513 0.735958 0.871717
0.831083 0.746395 0.86833
0.904509 0.739666 0.869505
0.967681 0.726223 0.874968
1 0.689158 0.885023
0 0.848447 0.883146
0 0.837583 0.87744
0.256504 0.821836 0.869978
0.554482 0.811856 0.86595
0.699397 0.80531 0.864271
0.802335 0.799588 0.863508
0.881407 0.804013 0.863096
0.940246 0.798978 0.867903
0.983673 0.785275 0.874479
0 0.891035 0.867094
0 0.909773 0.886519
0 0.885924 0.868544
0.512032 0.874891 0.862806
0.681437 0.869444 0.861738
0.786572 0.866178 0.861921
0.864149 0.864149 0.864149
0.916289 0.86334 0.869795
0.950271 0.861143 0.875929
0 0.745602 0.663035
0 0.838499 0.761807
0 0.951934 0.893568
0.412726 0.922087 0.865202
0.67895 0.913893 0.863645
0.792935 0.909819 0.865232
0.866712 0.908202 0.87219
0.908095 0.910246 0.886717
0.933898 0.909529 0.891569
0 0.53666 0.411856
0 0.536645 0.411841
0 0.587228 0.457237
0 0.953643 0.864179
0.611276 0.943084 0.880415
0.80882 0.935805 0.884871
0.878828 0.934539 0.89163
0.921401 0.93492 0.911665
0.936416 0.939101 0.918441
0.390173 0.675227 0.939742
0.456825 0.670375 0.939193
0.585779 0.659403 0.93814
0.713161 0.659571 0.934874
0.812192 0.684901 0.928252
0.87422 0.679164 0.927703
0.935088 0.668315 0.928679
0.989975 0.644785 0.932799
1 0.570871 0.94667
0.380056 0.68661 0.938216
0.448035 0.681865 0.937621
0.579324 0.671504 0.936385
0.698741 0.660166 0.935347
0.809171 0.696056 0.926696
0.871061 0.690013 0.926131
0.930938 0.680522 0.926558
0.985595 0.659266 0.930663
1 0.594278 0.943389
0.346349 0.717723 0.933989
0.421317 0.713405 0.933272
0.560739 0.703746 0.931701
0.684886 0.693538 0.930556
0.800916 0.723751 0.922469
0.862135 0.719005 0.921584
0.921157 0.711543 0.921813
0.973968 0.695842 0.924956
1 0.649866 0.93521
0.29398 0.757504 0.928527
0.383108 0.75346 0.927626
0.53727 0.74522 0.925933
0.666545 0.736065 0.92401
0.765209 0.733532 0.921721
0.851087 0.755856 0.915892
0.908248 0.750927 0.915572
0.958083 0.74078 0.917494
1 0.712535 0.925231
0.213886 0.797726 0.923186
0.33312 0.793759 0.922011
0.509133 0.786236 0.919692
0.648615 0.778378 0.917586
0.74464 0.77203 0.915862
0.84062 0.791882 0.910155
0.89575 0.789059 0.909651
0.942504 0.783688 0.910918
0.984726 0.768734 0.916503
0.00201419 0.842115 0.917617
0.245121 0.838087 0.916243
0.476051 0.830777 0.91342
0.629572 0.824262 0.910735
0.730678 0.819257 0.908888
0.811093 0.815015 0.907576
0.88394 0.82977 0.904372
0.926329 0.827985 0.90518
0.962798 0.822034 0.908995
0 0.89485 0.91606
0 0.888701 0.912749
0.419669 0.879652 0.907866
0.615488 0.873304 0.904982
0.72462 0.869398 0.903059
0.804044 0.866972 0.90193
0.868132 0.865522 0.901732
0.9122 0.873396 0.902937
0.941955 0.873564 0.906844
0 0.92723 0.903517
0 0.948119 0.924559
0.0763409 0.925597 0.909987
0.602853 0.914015 0.904463
0.738445 0.909743 0.903273
0.817304 0.908003 0.904082
0.873106 0.908232 0.906279
0.909758 0.909758 0.909758
0.933318 0.911971 0.914672
0 0.530755 0.461082
0 0.576715 0.505165
0 0.859419 0.792264
0 0.958541 0.918669
0.725719 0.935775 0.908629
0.834333 0.932982 0.911055
0.887449 0.933196 0.914992
0.919371 0.934829 0.921004
0.937484 0.93843 0.929381
0.603601 0.780499 0.952209
0.626398 0.779049 0.951705
0.680964 0.775402 0.950759
0.743252 0.770977 0.94963
0.80267 0.773129 0.94725
0.869474 0.803265 0.938811
0.907515 0.801846 0.937819
0.942321 0.799054 0.937972
0.974121 0.788006 0.940642
0.601465 0.784772 0.951461
0.625071 0.783444 0.951064
0.679591 0.780011 0.949996
0.741604 0.775738 0.948714
0.796902 0.77258 0.94754
0.868559 0.807095 0.938064
0.906523 0.805692 0.937163
0.940932 0.80293 0.93724
0.97232 0.792813 0.939834
0.595407 0.796994 0.949264
0.619471 0.795666 0.948852
0.67541 0.79234 0.947692
0.737896 0.788464 0.946471
0.792355 0.784405 0.945266
0.866361 0.816938 0.936172
0.903731 0.816312 0.935271
0.93695 0.814237 0.935088
0.966857 0.806485 0.93724
0.587732 0.814282 0.946151
0.611933 0.812879 0.945724
0.670314 0.809583 0.944533
0.733227 0.806241 0.943053
0.787457 0.802808 0.941665
0.856641 0.822858 0.935286
0.899641 0.830777 0.932433
0.93164 0.829709 0.932235
0.959411 0.824857 0.933837
0.579461 0.833524 0.942535
0.605249 0.832319 0.941955
0.664439 0.829419 0.940719
0.729168 0.826169 0.939223
0.783291 0.823148 0.937804
0.835523 0.820829 0.936355
0.895827 0.846754 0.929519
0.926009 0.846738 0.929213
0.951476 0.844617 0.930434
0.568048 0.857206 0.938003
0.596933 0.856092 0.937423
0.660182 0.853422 0.935973
0.725689 0.85069 0.934356
0.781003 0.848676 0.932906
0.831647 0.846738 0.931456
0.892653 0.86659 0.926482
0.920607 0.867552 0.926528
0.943404 0.86714 0.927611
0.55227 0.887587 0.932921
0.58761 0.886427 0.932204
0.659922 0.883955 0.930571
0.729778 0.881376 0.928771
0.783902 0.879622 0.92726
0.832593 0.878813 0.926177
0.877653 0.878767 0.925429
0.916777 0.89279 0.925261
0.936095 0.89395 0.926802
0.481193 0.919646 0.93077
0.548348 0.917571 0.929564
0.658869 0.913893 0.927443
0.744991 0.911299 0.925841
0.801297 0.909987 0.925078
0.84622 0.909789 0.924971
0.884794 0.910567 0.925719
0.913603 0.912245 0.927199
0.934279 0.919127 0.930617
0 0.940795 0.91696
0 0.960784 0.937118
0.290028 0.948333 0.934798
0.726833 0.935607 0.929198
0.81706 0.933669 0.929503
0.865248 0.933471 0.930785
0.899916 0.934737 0.933089
0.923323 0.936675 0.935897
0.939116 0.939116 0.939116
