1 - Nebula Neutral - HLG 3.cube
TITLE "Generated by Resolve"
LUT_3D_SIZE 5
0.0296483 0.0296483 0.0296483
0.313405 0.00393683 0.0150149
0.395438 0 0
0.400381 0 0
0.594797 0 0
0 0.418921 0.107393
0.485969 0.414832 0
0.881727 0.383307 0
1 0.201419 0
0.603922 0 0
0 0.670756 0.203464
0 0.795178 0
0.759487 0.745846 0
0.974273 0.736019 0
1 0.610895 0
0 0.64036 0.251759
0 0.957137 0.462196
0.651194 0.920485 0.383505
0.878401 0.913848 0.4224
0.981781 0.908598 0.43444
0 0.560769 0.261189
0 0.560678 0.261067
0 0.982818 0.729213
0.887861 0.94255 0.838285
0.933928 0.945037 0.868437
0 0.0897536 0.458289
0.55993 0 0.464637
0.83595 0 0.41532
0.552102 0 0.183017
0.718959 0 0.156497
0 0.460212 0.441764
0.452338 0.452338 0.452338
0.855406 0.395422 0.454185
1 0.204486 0.48484
0.723598 0 0.167773
0 0.687709 0.477028
0.0145266 0.762722 0.463249
0.734951 0.738857 0.444541
0.955123 0.714488 0.448035
1 0.569284 0.450645
0 0.665339 0.373144
0 0.937453 0.607401
0.672465 0.90074 0.572183
0.871489 0.896834 0.600412
0.97322 0.885801 0.624186
0 0.556771 0.285786
0 0.556695 0.285679
0.158984 0.975341 0.763272
0.890791 0.940352 0.853773
0.933913 0.943465 0.878386
0 0.303304 0.767926
0.536904 0.195361 0.768872
0.885634 0 0.779034
1 0 0.809537
0.787442 0 0.370108
0 0.552666 0.757519
0.435615 0.494026 0.747036
0.816083 0.452842 0.746227
1 0.345312 0.761715
0.831907 0 0.395026
0 0.758053 0.734371
0.138766 0.743404 0.726497
0.721584 0.721584 0.721584
0.932891 0.697658 0.731548
1 0.590692 0.759655
0 0.745998 0.594171
0 0.910155 0.755764
0.641474 0.88423 0.715267
0.865156 0.874983 0.758419
0.96463 0.861723 0.774868
0 0.54844 0.336156
0 0.546548 0.334813
0.38407 0.96083 0.819883
0.89659 0.936889 0.879637
0.934707 0.941131 0.897185
0.103487 0.552224 0.907103
0.536065 0.514229 0.904646
0.819165 0.520272 0.898299
0.983764 0.462943 0.903944
1 0 0.973449
0 0.64303 0.897734
0.483665 0.611917 0.893782
0.79237 0.615061 0.886732
0.954269 0.582635 0.889967
1 0.338598 0.925841
0 0.78233 0.88455
0.360739 0.756817 0.875975
0.726513 0.735958 0.871717
0.904509 0.739666 0.869505
1 0.689158 0.885023
0 0.891035 0.867094
0 0.885924 0.868544
0.681437 0.869444 0.861738
0.864149 0.864149 0.864149
0.950271 0.861143 0.875929
0 0.53666 0.411856
0 0.587228 0.457237
0.611276 0.943084 0.880415
0.878828 0.934539 0.89163
0.936416 0.939101 0.918441
0.603601 0.780499 0.952209
0.680964 0.775402 0.950759
0.80267 0.773129 0.94725
0.907515 0.801846 0.937819
0.974121 0.788006 0.940642
0.595407 0.796994 0.949264
0.67541 0.79234 0.947692
0.792355 0.784405 0.945266
0.903731 0.816312 0.935271
0.966857 0.806485 0.93724
0.579461 0.833524 0.942535
0.664439 0.829419 0.940719
0.783291 0.823148 0.937804
0.895827 0.846754 0.929519
0.951476 0.844617 0.930434
0.55227 0.887587 0.932921
0.659922 0.883955 0.930571
0.783902 0.879622 0.92726
0.877653 0.878767 0.925429
0.936095 0.89395 0.926802
0 0.940795 0.91696
0.290028 0.948333 0.934798
0.81706 0.933669 0.929503
0.899916 0.934737 0.933089
0.939116 0.939116 0.939116
